dist/assets/icons/instagram.svg

<svg width="23" height="24" viewBox="0 0 23 24" fill="none" xmlns="http://www.w3.org/2000/svg">
<path d="M6.6571 0.67334C2.98565 0.67334 0 3.63873 0 7.28325V16.8407C0 20.4852 2.98565 23.449 6.6571 23.449H16.3429C20.0143 23.449 23 20.4852 23 16.8407V7.28325C23 3.63873 20.0143 0.67334 16.3429 0.67334H6.6571ZM6.6571 2.6313H16.3429C18.9559 2.6313 21.0292 4.68941 21.0292 7.28325V16.8407C21.0292 19.4345 18.9559 21.491 16.3429 21.491H6.6571C4.04408 21.491 1.97241 19.4345 1.97241 16.8407V7.28325C1.97241 4.68941 4.04408 2.6313 6.6571 2.6313ZM17.6727 4.58924C16.9107 4.58924 16.2934 5.20201 16.2934 5.95832C16.2934 6.71466 16.9107 7.32741 17.6727 7.32741C18.4346 7.32741 19.0519 6.71466 19.0519 5.95832C19.0519 5.20201 18.4346 4.58924 17.6727 4.58924ZM11.5 6.19713C8.24893 6.19713 5.59264 8.83395 5.59264 12.0612C5.59264 15.2884 8.24893 17.9252 11.5 17.9252C14.7511 17.9252 17.409 15.2884 17.409 12.0612C17.409 8.83395 14.7511 6.19713 11.5 6.19713ZM11.5 8.15509C13.6853 8.15509 15.4366 9.89192 15.4366 12.0612C15.4366 14.2304 13.6853 15.9672 11.5 15.9672C9.31472 15.9672 7.56504 14.2304 7.56504 12.0612C7.56504 9.89192 9.31472 8.15509 11.5 8.15509Z" fill="#5C5C50"/>
</svg>

<svg width="23" height="24" fill="none" xmlns="http://www.w3.org/2000/svg"><path d="M6.657.673C2.986.673 0 3.64 0 7.283v9.558c0 3.644 2.986 6.608 6.657 6.608h9.686c3.671 0 6.657-2.964 6.657-6.608V7.283c0-3.644-2.986-6.61-6.657-6.61H6.657Zm0 1.958h9.686c2.613 0 4.686 2.058 4.686 4.652v9.558c0 2.593-2.073 4.65-4.686 4.65H6.657c-2.613 0-4.685-2.056-4.685-4.65V7.283c0-2.594 2.072-4.652 4.685-4.652ZM17.673 4.59c-.762 0-1.38.613-1.38 1.37 0 .756.618 1.368 1.38 1.368.762 0 1.379-.612 1.379-1.369 0-.756-.617-1.369-1.38-1.369ZM11.5 6.197c-3.251 0-5.907 2.637-5.907 5.864s2.656 5.864 5.907 5.864 5.909-2.637 5.909-5.864-2.658-5.864-5.909-5.864Zm0 1.958c2.185 0 3.937 1.737 3.937 3.906 0 2.17-1.752 3.906-3.937 3.906-2.185 0-3.935-1.737-3.935-3.906 0-2.17 1.75-3.906 3.935-3.906Z" fill="#5C5C50"/></svg>
